X:113
T:Mrs.Casy. GS.113
M:6/8
L:1/8
Q:3/8=120
S:George Spencer m/s, Leeds,1831
R:.Jig
O:England
A:Leeds
N:â€™end of Mrs. Casyâ€™ written after music A music has only seven bars, so
N:bar added to match
N: pattern which occurs in 3 other places
H:1831
Z:vmp.Cherri Graebe
K:G major
(gf/e/) | d2B (BcB) | A2A (ABA) | â€œ_BAR ADDEDâ€ B2B BcB |\
g3 (f2e) |!
d2B (BcB) | A2A (ABA) | B2 B (BcB) | d3 f3 :|!
|: d2ef2g | a2ba2f | d2ef2g | a3 f2a |!
b2ga2f | g2ef2d | d2B (BcB) | g3 (f2e) |!
d2B (BcB) | A2A (ABA) | B2B (BcB) | g3 (f2e) |!
d2B (BcB) | A2A (ABA) | B2B (BcB) | d3g3 ğŸ˜

